!!!SOCIAL_FUNCTION:	songs concerning the sacred stones
!!!PDT:	1918

Specific Region: Dakotas, Minnesota, Montana, Nebraska
!!!REG: Dakotas and Montana
!!!LING_GROUP: Siouan
!!!LANG: Tone
!!!OTL@ENG: A Spirit Has Come
!!!ONM: No. 74
**kern
*Imale
*clefF4
*k[f#c#g#]
*M2/4
*MM100
8c#
=1
8.c#
16c#
8c#
8c#
=2||
*M3/4
2.c#
=3
4B
4B
8A
8A
=4
[2A
8A]
8B
=5||
*M2/4
8.B
16B
8B
8A
=6||
*M3/4
2.A
=7
4A
4A
8F#
8F#
=8
2.F#
=9||
*M2/4
8B
8B
8B
8B
=10
12B
12A
12A
8.F#
16A
=11
8.A
16A
8A
8A
=12||
*M3/4
2.A
=13
4A
4A
8F#
8F#
=14
[2F#
8F#]
8C#
=15||
*M2/4
8.C#
16C#
8C#
8C#
=16||
*M3/4
2.C#
=17
4BB
4BB
8AA
8AA
=18
[2AA
8AA]
8BB
=19||
*M2/4
8.BB
16BB
8BB
8AA
=20||
*M3/4
2.AA
=21
4AA
4AA
8FF#
8FF#
=22
2.FF#
==
*-
!!!CNT: Native American -- Sioux
!!!MRD: 1911/07//-1914///
!!!OCL: Frances Densmore
!!!YOR1: Teton Sioux Music, Bulletin 61,
!!!YOR2: Bureau of American Ethnology, Smithsonian Institution
!!!PPR: Government Printing Office
!!!PPP: Washington, D.C.
!!!PDT: 1918///
!!!ENC: Craig Stuart Sapp
!!!END: 2002/03/25/
!!!EEV: 2002/03/31/
!!!AGN: Song of Personal Dreams/Song Concerning the Sacred Stones
!!!MPN@@SIO: Shiya'ka
!!!MPN@ENG: Teal Duck
!!!TXO: Teton Sioux
!!!MLC: Standing Rock Reservation, South Dakota, United States of America
!!!ARL: 45.9/-100.7#
!!!catalog: Catalogue No. 461
!!!PPG: 232
!!!EFL: 74/245
!!!VTS: 2272788186
